svg/u1f004.svg

<svg viewBox="0 0 128 128" xmlns="http://www.w3.org/2000/svg">
  <path d="M23.99,19.3c0,0,0.97-6.59,2.23-9.23c1.26-2.64,3.24-5.42,7.04-6.16c4.53-0.88,57.05-0.42,60.69-0.19 c3.67,0.24,6.08,1.39,7.46,3.65c1.05,1.73,1.42,3.84,1.91,6.97c0.26,1.65,0.8,6.17,0.8,6.17L23.99,19.3z" fill="#FFA828"/>
  <path d="M50.63,37.15l-28.16-4.68c0,0,0.59-11.65,1.81-14.7c1.22-3.05,2.73-4.87,7.16-5.63 c4.43-0.76,15.53-0.45,32.18-0.6c16.65-0.15,31.31,0.86,33.91,1.01c2.6,0.15,5.04,1.43,5.8,3.87c0.76,2.44,1.13,5.74,1.68,11.61 c0.2,2.13,0.02,6.16,0.02,6.16l-32.27,2.2L50.63,37.15z" fill="#F1EDEC"/>
  <path d="M22.23,35.52c0.19-3.05,0.25-6.35,2.57-8.32c1.99-1.68,5.35-1.37,9.32-1.53 c3.67-0.14,12.98-0.06,30.55-0.06s32.36,0.26,35.11,0.26s5.09,2.15,5.39,4.14c0.31,1.99-1.07,86.15-1.22,87.98 c-0.15,1.83-0.76,5.5-4.74,5.8c-3.97,0.31-66.44,0.31-69.04,0c-2.6-0.31-4.89-2.6-5.35-6.87S22.07,37.96,22.23,35.52z" fill="#D8CDC9"/>
  <path d="M29.61,49.86c2.3,0.3,4.21-9.61,7.21-11.92c3-2.3,8.61-3.51,8.61-5.81c0-1.15-3.64-1.14-7.01-1.1 c-3.37,0.04-6.27-0.24-7.91,1.5c-1.8,1.9-1.98,4.95-2.1,8.01C28.2,45.45,28.19,49.67,29.61,49.86z" fill="#F1EDEC"/>
  <path d="M79.34,117.49c0,1.68,1.23,2.23,7.88,2c5.62-0.19,8.4-0.9,10.07-2.91c1.67-2,2.13-6.2,2.2-11.24 c0.04-3.49-0.05-6.85-1.81-6.85c-2.52,0-2.51,5.75-4.52,8.98C89.22,113.81,79.34,115.25,79.34,117.49z" fill="#F1EDEC"/>
  <path d="M60,49.82c0,0-0.74-2.21-1.75-3.49s-1.84-1.75-1.75-2.48s2.21-3.13,3.86-3.22 c1.65-0.09,6.34,2.02,8,3.4s1.84,3.31,1.75,4.41c-0.09,1.1-0.83,2.21-0.83,2.21s-0.55,50.83-0.55,53.13s-0.55,6.53-3.49,6.53 c-2.95,0-3.33-3.69-3.58-5.61C61.19,101.2,60,49.82,60,49.82z" fill="#DF0B26"/>
  <path d="M38.49,57.73c-0.14,1.89,5.97,26.75,6.43,27.48s2.48,3.31,4.14,2.67c1.65-0.64,0.02-19.5-0.28-22.7 c-0.37-3.95-1.93-7.45-5.15-8.82C40.42,54.97,38.58,56.44,38.49,57.73z" fill="#DF0B26"/>
  <path d="M45.51,59.67c0,0,14.67-0.66,20.74-1.12c4.7-0.36,11.4-0.92,13.42-1.29s4.78-1.65,5.52-1.56 s6.57,2.99,6.57,3.36s0.18,2.02-0.09,2.39s-2.27,2.39-3,4.32c-0.74,1.93-3.93,14.84-4.49,15.67c-0.48,0.73-5.52-1.19-5.52-1.19 s2.11-12.41,2.3-13.24s-0.83-2.02-0.83-2.02l-33.14,0.66L45.51,59.67z" fill="#DF0B26"/>
  <path d="M48.14,78.78c0,0,25.92-0.55,27.94-0.55c2.02,0,6.07-0.74,7.35-0.37s3.86,2.11,4.23,3.68 s0.18,2.94-1.29,3.13s-37.96,0.09-37.96,0.09L48.14,78.78z" fill="#DF0B26"/>
</svg>

<svg viewBox="0 0 128 128" xmlns="http://www.w3.org/2000/svg">
  <defs/>
  <path d="M23.99,19.3 C23.99,19.3 24.96,12.71 26.22,10.07 C27.48,7.43 29.46,4.65 33.26,3.91 C37.79,3.03 90.31,3.49 93.95,3.72 C97.62,3.96 100.03,5.11 101.41,7.37 C102.46,9.1 102.83,11.21 103.32,14.34 C103.58,15.99 104.12,20.51 104.12,20.51 L23.99,19.3 Z" fill="#FFA828"/>
  <path d="M50.63,37.15 L22.47,32.47 C22.47,32.47 23.06,20.82 24.28,17.77 C25.5,14.72 27.01,12.9 31.44,12.14 C35.87,11.38 46.97,11.69 63.62,11.54 C80.27,11.39 94.93,12.4 97.53,12.55 C100.13,12.7 102.57,13.98 103.33,16.42 C104.09,18.86 104.46,22.16 105.01,28.03 C105.21,30.16 105.03,34.19 105.03,34.19 L72.76,36.39 L50.63,37.15 Z" fill="#F1EDEC"/>
  <path d="M22.23,35.52 C22.42,32.47 22.48,29.17 24.8,27.2 C26.79,25.52 30.15,25.83 34.12,25.67 C37.79,25.53 47.1,25.61 64.67,25.61 C82.24,25.61 97.03,25.87 99.78,25.87 C102.53,25.87 104.87,28.02 105.17,30.01 C105.48,32 104.1,116.16 103.95,117.99 C103.8,119.82 103.19,123.49 99.21,123.79 C95.24,124.1 32.77,124.1 30.17,123.79 C27.57,123.48 25.28,121.19 24.82,116.92 C24.36,112.65 22.07,37.96 22.23,35.52 Z" fill="#D8CDC9"/>
  <path d="M29.61,49.86 C31.91,50.16 33.82,40.25 36.82,37.94 C39.82,35.64 45.43,34.43 45.43,32.13 C45.43,30.98 41.79,30.99 38.42,31.03 C35.05,31.07 32.15,30.79 30.51,32.53 C28.71,34.43 28.53,37.48 28.41,40.54 C28.2,45.45 28.19,49.67 29.61,49.86 Z" fill="#F1EDEC"/>
  <path d="M79.34,117.49 C79.34,119.17 80.57,119.72 87.22,119.49 C92.84,119.3 95.62,118.59 97.29,116.58 C98.96,114.58 99.42,110.38 99.49,105.34 C99.53,101.85 99.44,98.49 97.68,98.49 C95.16,98.49 95.17,104.24 93.16,107.47 C89.22,113.81 79.34,115.25 79.34,117.49 Z" fill="#F1EDEC"/>
  <path d="M60,49.82 C60,49.82 59.26,47.61 58.25,46.33 C57.24,45.05 56.41,44.58 56.5,43.85 C56.59,43.12 58.71,40.72 60.36,40.63 C62.01,40.54 66.7,42.65 68.36,44.03 C70.02,45.41 70.2,47.34 70.11,48.44 C70.02,49.54 69.28,50.65 69.28,50.65 C69.28,50.65 68.73,101.48 68.73,103.78 C68.73,106.08 68.18,110.31 65.24,110.31 C62.29,110.31 61.91,106.62 61.66,104.7 C61.19,101.2 60,49.82 60,49.82 Z" fill="#DF0B26"/>
  <path d="M38.49,57.73 C38.35,59.62 44.46,84.48 44.92,85.21 C45.38,85.94 47.4,88.52 49.06,87.88 C50.71,87.24 49.08,68.38 48.78,65.18 C48.41,61.23 46.85,57.73 43.63,56.36 C40.42,54.97 38.58,56.44 38.49,57.73 Z" fill="#DF0B26"/>
  <path d="M45.51,59.67 C45.51,59.67 60.18,59.01 66.25,58.55 C70.95,58.19 77.65,57.63 79.67,57.26 C81.69,56.89 84.45,55.61 85.19,55.7 C85.93,55.79 91.76,58.69 91.76,59.06 C91.76,59.43 91.94,61.08 91.67,61.45 C91.4,61.82 89.4,63.84 88.67,65.77 C87.93,67.7 84.74,80.61 84.18,81.44 C83.7,82.17 78.66,80.25 78.66,80.25 C78.66,80.25 80.77,67.84 80.96,67.01 C81.15,66.18 80.13,64.99 80.13,64.99 L46.99,65.65 L45.51,59.67 Z" fill="#DF0B26"/>
  <path d="M48.14,78.78 C48.14,78.78 74.06,78.23 76.08,78.23 C78.1,78.23 82.15,77.49 83.43,77.86 C84.71,78.23 87.29,79.97 87.66,81.54 C88.03,83.11 87.84,84.48 86.37,84.67 C84.9,84.86 48.41,84.76 48.41,84.76 L48.14,78.78 Z" fill="#DF0B26"/>
</svg>
